src/assets/practicalLife.svg

<svg width="512" height="512" fill="none" xmlns="http://www.w3.org/2000/svg"><path d="M496 48H16v256h480V48Z" fill="#B5AEAC"/><path d="M480 48H16v256h464V48Z" fill="#F2E8E5"/><path d="m202.339 114.345-87.997 87.997 11.314 11.313 87.997-87.997-11.314-11.313Z" fill="#737373"/><path d="M209.872 288.016A23.922 23.922 0 0 0 216 272c0-7.096-3.08-13.472-7.976-17.864l-3.112-2.344A23.924 23.924 0 0 0 208 240c0-13.256-10.744-24-24-24-7.128 0-13.536 3.112-17.928 8.048l.048-1.392C162.472 214.048 153.944 208 144 208a23.91 23.91 0 0 0-17.208 7.272l.008.008C123 201.848 110.648 192 96 192c-17.672 0-32 14.328-32 32a31.83 31.83 0 0 0 4.432 16.256l-.192.12A23.881 23.881 0 0 0 64 240c-13.256 0-24 10.744-24 24s10.744 24 24 24h144l1.872.016Z" fill="#999"/><path d="M496 304H16v32h480v-32Z" fill="#7D5D3E"/><path d="M480 304H16v32h464v-32Z" fill="#A67C52"/><path d="M208 496H48L32 288h192l-16 208Z" fill="#B19231"/><path d="m32 288 16 208h136l16-208H32Z" fill="#ECC341"/><path d="M352 432h104c8.84 0 16 7.16 16 16s-7.16 16-16 16h-72c-8.84 0-16 7.16-16 16s-7.16 16-16 16h-88c-8.84 0-16-7.16-16-16s7.16-16 16-16h56c8.84 0 16-7.16 16-16s7.16-16 16-16Z" fill="#29ABE2"/><path d="M448 448c0-8.84-7.16-16-16-16h-80c-8.84 0-16 7.16-16 16s-7.16 16-16 16h-56c-8.84 0-16 7.16-16 16s7.16 16 16 16h64c8.84 0 16-7.16 16-16s7.16-16 16-16h72c8.84 0 16-7.16 16-16Z" fill="#54BCE8"/><path d="M408 224H264v48h144v-48Z" fill="#737373"/><path d="M384 224H264v48h120v-48Z" fill="#999"/><path d="M496 16H16v32h480V16Z" fill="#7D5D3E"/><path d="M480 16H16v32h464V16Z" fill="#A67C52"/><path d="M480 256c8.837 0 16-7.163 16-16s-7.163-16-16-16-16 7.163-16 16 7.163 16 16 16Z" fill="#29ABE2"/><path d="M472 253.784c4.418 0 8-6.171 8-13.784s-3.582-13.784-8-13.784-8 6.171-8 13.784 3.582 13.784 8 13.784Z" fill="#54BCE8"/><path d="M240 112c8.837 0 16-7.163 16-16s-7.163-16-16-16-16 7.163-16 16 7.163 16 16 16Z" fill="#29ABE2"/><path d="M232 109.784c4.418 0 8-6.171 8-13.784s-3.582-13.784-8-13.784-8 6.171-8 13.784 3.582 13.784 8 13.784Z" fill="#54BCE8"/><path d="M464 144c17.673 0 32-14.327 32-32 0-17.673-14.327-32-32-32-17.673 0-32 14.327-32 32 0 17.673 14.327 32 32 32Z" fill="#29ABE2"/><path d="M452 141.624c11.046 0 20-13.263 20-29.624 0-16.36-8.954-29.624-20-29.624S432 95.639 432 112c0 16.361 8.954 29.624 20 29.624Z" fill="#54BCE8"/><path d="M408 240c13.8-3.552 24-16.08 24-30.992 0-12.688-7.44-23.552-18.144-28.728 1.328-3.52 2.144-7.288 2.144-11.272 0-17.672-14.328-32-32-32-.376 0-.728.096-1.096.112-3.528-13.832-15.968-24.112-30.904-24.112-10.064 0-18.936 4.744-24.8 12.008-4.544-2.472-9.664-4.008-15.2-4.008-15.392 0-28.224 10.872-31.288 25.352-2.784-.792-5.672-1.352-8.712-1.352-17.672 0-32 14.328-32 32 0 9.616 4.328 18.136 11.04 24-6.712 5.864-11.04 14.384-11.04 24 0 14.912 10.2 27.44 24 30.992v-30.992h144V240Z" fill="#29ABE2"/><path d="M408 225.008V240c9.856-2.536 17.8-9.696 21.576-18.984a32.206 32.206 0 0 0-15.72-16.736c1.328-3.52 2.144-7.288 2.144-11.272 0-17.672-14.328-32-32-32-.376 0-.728.096-1.096.112-3.528-13.832-15.968-24.112-30.904-24.112-10.064 0-18.936 4.744-24.8 12.008-4.544-2.472-9.664-4.008-15.2-4.008-15.392 0-28.224 10.872-31.288 25.352-2.784-.792-5.672-1.352-8.712-1.352-13.344 0-24.752 8.176-29.56 19.784 1.92 4.712 4.816 8.912 8.592 12.216-3.72 3.256-6.6 7.376-8.52 12 1.92 4.624 4.8 8.744 8.52 12-3.752 3.28-6.64 7.448-8.56 12.12 3.8 9.232 11.712 16.344 21.528 18.872v-30.992h144Z" fill="#54BCE8"/><path d="m352 304 24-32v-16h-80v16l24 32v96h32v-96Z" fill="#7D5D3E"/><path d="M360 272v-16h-64v16l24 32v96h16v-96l24-32Z" fill="#A67C52"/><path d="M128 384c-35.288 0-64-28.712-64-64v-8h16v8c0 26.472 21.528 48 48 48s48-21.528 48-48v-8h16v8c0 35.288-28.712 64-64 64ZM209.848 472l1.232-16H44.92l1.232 16h163.696Z" fill="#594919"/><path d="M138.338 114.347 90.34 162.345l11.313 11.314 47.998-47.998-11.313-11.314Z" fill="#737373"/><path d="M448 392h-72v16h72v-16ZM480 392h-16v16h16v-16Z" fill="#155671"/></svg>

<svg width="512" height="512" viewBox="0 0 512 512" fill="none" xmlns="http://www.w3.org/2000/svg">
<path d="M496 48H16V304H496V48Z" fill="#B5AEAC"/>
<path d="M480 48H16V304H480V48Z" fill="#F2E8E5"/>
<path d="M202.339 114.345L114.342 202.342L125.656 213.655L213.653 125.658L202.339 114.345Z" fill="#737373"/>
<path d="M209.872 288.016C213.68 283.768 216 278.152 216 272C216 264.904 212.92 258.528 208.024 254.136L204.912 251.792C206.88 248.304 208 244.28 208 240C208 226.744 197.256 216 184 216C176.872 216 170.464 219.112 166.072 224.048L166.12 222.656C162.472 214.048 153.944 208 144 208C137.248 208 131.152 210.784 126.792 215.272L126.8 215.28C123 201.848 110.648 192 96 192C78.328 192 64 206.328 64 224C64 229.936 65.616 235.496 68.432 240.256L68.24 240.376C66.864 240.128 65.448 240 64 240C50.744 240 40 250.744 40 264C40 277.256 50.744 288 64 288H208L209.872 288.016Z" fill="#999999"/>
<path d="M496 304H16V336H496V304Z" fill="#7D5D3E"/>
<path d="M480 304H16V336H480V304Z" fill="#A67C52"/>
<path d="M208 496H48L32 288H224L208 496Z" fill="#B19231"/>
<path d="M32 288L48 496H184L200 288H32Z" fill="#ECC341"/>
<path d="M352 432H456C464.84 432 472 439.16 472 448C472 456.84 464.84 464 456 464H384C375.16 464 368 471.16 368 480C368 488.84 360.84 496 352 496H264C255.16 496 248 488.84 248 480C248 471.16 255.16 464 264 464H320C328.84 464 336 456.84 336 448C336 439.16 343.16 432 352 432Z" fill="#29ABE2"/>
<path d="M448 448C448 439.16 440.84 432 432 432H352C343.16 432 336 439.16 336 448C336 456.84 328.84 464 320 464H296H264C255.16 464 248 471.16 248 480C248 488.84 255.16 496 264 496H328C336.84 496 344 488.84 344 480C344 471.16 351.16 464 360 464H384H432C440.84 464 448 456.84 448 448Z" fill="#54BCE8"/>
<path d="M408 224H264V272H408V224Z" fill="#737373"/>
<path d="M384 224H264V272H384V224Z" fill="#999999"/>
<path d="M496 16H16V48H496V16Z" fill="#7D5D3E"/>
<path d="M480 16H16V48H480V16Z" fill="#A67C52"/>
<path d="M480 256C488.837 256 496 248.837 496 240C496 231.163 488.837 224 480 224C471.163 224 464 231.163 464 240C464 248.837 471.163 256 480 256Z" fill="#29ABE2"/>
<path d="M472 253.784C476.418 253.784 480 247.613 480 240C480 232.387 476.418 226.216 472 226.216C467.582 226.216 464 232.387 464 240C464 247.613 467.582 253.784 472 253.784Z" fill="#54BCE8"/>
<path d="M240 112C248.837 112 256 104.837 256 96C256 87.1634 248.837 80 240 80C231.163 80 224 87.1634 224 96C224 104.837 231.163 112 240 112Z" fill="#29ABE2"/>
<path d="M232 109.784C236.418 109.784 240 103.613 240 96.0001C240 88.3874 236.418 82.2161 232 82.2161C227.582 82.2161 224 88.3874 224 96.0001C224 103.613 227.582 109.784 232 109.784Z" fill="#54BCE8"/>
<path d="M464 144C481.673 144 496 129.673 496 112C496 94.3269 481.673 80 464 80C446.327 80 432 94.3269 432 112C432 129.673 446.327 144 464 144Z" fill="#29ABE2"/>
<path d="M452 141.624C463.046 141.624 472 128.361 472 112C472 95.6391 463.046 82.376 452 82.376C440.954 82.376 432 95.6391 432 112C432 128.361 440.954 141.624 452 141.624Z" fill="#54BCE8"/>
<path d="M408 240C421.8 236.448 432 223.92 432 209.008C432 196.32 424.56 185.456 413.856 180.28C415.184 176.76 416 172.992 416 169.008C416 151.336 401.672 137.008 384 137.008C383.624 137.008 383.272 137.104 382.904 137.12C379.376 123.288 366.936 113.008 352 113.008C341.936 113.008 333.064 117.752 327.2 125.016C322.656 122.544 317.536 121.008 312 121.008C296.608 121.008 283.776 131.88 280.712 146.36C277.928 145.568 275.04 145.008 272 145.008C254.328 145.008 240 159.336 240 177.008C240 186.624 244.328 195.144 251.04 201.008C244.328 206.872 240 215.392 240 225.008C240 239.92 250.2 252.448 264 256V225.008H408V240Z" fill="#29ABE2"/>
<path d="M408 225.008V240C417.856 237.464 425.8 230.304 429.576 221.016C426.568 213.696 420.96 207.72 413.856 204.28C415.184 200.76 416 196.992 416 193.008C416 175.336 401.672 161.008 384 161.008C383.624 161.008 383.272 161.104 382.904 161.12C379.376 147.288 366.936 137.008 352 137.008C341.936 137.008 333.064 141.752 327.2 149.016C322.656 146.544 317.536 145.008 312 145.008C296.608 145.008 283.776 155.88 280.712 170.36C277.928 169.568 275.04 169.008 272 169.008C258.656 169.008 247.248 177.184 242.44 188.792C244.36 193.504 247.256 197.704 251.032 201.008C247.312 204.264 244.432 208.384 242.512 213.008C244.432 217.632 247.312 221.752 251.032 225.008C247.28 228.288 244.392 232.456 242.472 237.128C246.272 246.36 254.184 253.472 264 256V249.008V225.008H408Z" fill="#54BCE8"/>
<path d="M352 304L376 272V256H296V272L320 304V400H352V304Z" fill="#7D5D3E"/>
<path d="M360 272V256H296V272L320 304V400H336V304L360 272Z" fill="#A67C52"/>
<path d="M128 384C92.712 384 64 355.288 64 320V312H80V320C80 346.472 101.528 368 128 368C154.472 368 176 346.472 176 320V312H192V320C192 355.288 163.288 384 128 384Z" fill="#594919"/>
<path d="M209.848 472L211.08 456H44.9199L46.1519 472H209.848Z" fill="#594919"/>
<path d="M138.338 114.347L90.3398 162.345L101.653 173.659L149.651 125.661L138.338 114.347Z" fill="#737373"/>
<path d="M448 392H376V408H448V392Z" fill="#155671"/>
<path d="M480 392H464V408H480V392Z" fill="#155671"/>
</svg>
